X: 2508
T: Ballydesmond, The
R: polka
M: 2/4
K: Adorian
|:EA A>B|cd e/f/g|G2 G>A|GE F/E/D|
EA A>B|cd ef|ge dB|1 A2 A/B/A/G/:|2 A2 A2||
|:a2 a>b|ag ef|g2 g>a|ge f/e/d|
ea a>b|ag ef|ge dB|1 A2 A2:|2 A2 A/B/A/G/||

